src/_assets/sidebar/foot2.svg

<svg width="31" height="30" viewBox="0 0 31 30" fill="none" xmlns="http://www.w3.org/2000/svg">
<path d="M17.3798 10.8076C15.8195 10.8076 14.3804 10.8076 12.9495 10.8076C12.5533 10.8076 12.1653 10.8402 11.7853 10.971C10.8152 11.306 10.2412 12.0742 10.1846 13.1202C10.1361 14.0763 10.6858 14.9588 11.5913 15.3592C12.0278 15.5553 12.4967 15.6452 12.9737 15.6452C14.4936 15.6452 16.0054 15.6452 17.5253 15.6452C18.3418 15.6452 18.7784 15.9884 18.9239 16.6667C19.0775 17.4022 18.6976 17.9987 17.97 18.1785C17.5334 18.2847 17.0887 18.2602 16.6522 18.2602C15.1808 18.252 13.7175 18.2929 12.2461 18.2112C10.0067 18.0804 8.04216 16.2091 7.71878 13.9619C7.32264 11.2652 9.20634 8.20077 12.7554 8.20077C14.8574 8.20077 16.9594 8.20077 19.0614 8.20077C19.3282 8.20077 19.5949 8.20077 19.8698 8.20077C20.4681 8.17625 20.6621 7.9883 20.6621 7.38359C20.6621 6.47653 20.654 5.56946 20.654 4.65423C20.654 4.04135 20.6944 4.00866 21.3008 4.00049C21.7778 4.00049 22.2467 4.00049 22.7237 4.00049C23.0147 4.00049 23.1521 4.12306 23.1521 4.43359C23.1521 6.39481 23.1521 8.35603 23.1521 10.3173C23.1521 10.6605 22.9662 10.7258 22.6751 10.7504C20.8723 10.8974 19.0775 10.7585 17.396 10.8239L17.3798 10.8076Z" fill="black"/>
<path d="M13.0466 19.2223C14.563 19.2223 16.0713 19.2223 17.5876 19.2223C17.9667 19.2223 18.3458 19.1814 18.7168 19.1079C19.959 18.8627 20.6768 17.8985 20.6284 16.5911C20.58 15.488 19.6847 14.5646 18.4829 14.4094C17.999 14.344 17.515 14.3113 17.023 14.3113C15.7486 14.3195 14.4662 14.3195 13.1918 14.3113C12.3691 14.3032 11.9335 13.8619 11.9255 13.0938C11.9174 12.3012 12.361 11.7864 13.1676 11.7782C15.0147 11.7537 16.8617 11.7047 18.7007 11.7946C21.0075 11.909 23.0401 14.0662 23.145 16.3868C23.274 19.0589 21.6528 21.2406 19.2089 21.69C18.8782 21.7472 18.5555 21.7717 18.2248 21.7799C15.9584 21.8534 13.6838 21.8371 11.4173 21.7799C10.3849 21.7554 10.1429 21.9924 10.1833 23.0301C10.2155 23.8391 10.1833 24.6562 10.1833 25.4652C10.1833 25.8492 10.0703 26.0208 9.67512 26.0045C9.15892 25.98 8.63464 25.9881 8.11037 26.0045C7.82 26.0045 7.66675 25.8982 7.66675 25.5877C7.66675 23.6103 7.66675 21.6328 7.66675 19.6554C7.66675 19.255 7.93292 19.2468 8.21522 19.2468C9.82031 19.2468 11.4335 19.2468 13.0385 19.2468C13.0385 19.2468 13.0385 19.2468 13.0385 19.2386L13.0466 19.2223Z" fill="black"/>
</svg>

<svg xmlns="http://www.w3.org/2000/svg" width="31" height="30" fill="none"><path fill="#000" d="M17.38 10.808h-4.43c-.397 0-.785.032-1.165.163-.97.335-1.544 1.103-1.6 2.15-.049.955.5 1.838 1.406 2.238.437.196.906.286 1.383.286h4.551c.817 0 1.253.343 1.399 1.022.154.735-.226 1.332-.954 1.511-.437.107-.881.082-1.318.082-1.471-.008-2.935.033-4.406-.049-2.24-.13-4.204-2.002-4.527-4.25-.396-2.696 1.487-5.76 5.036-5.76h7.115c.598-.025.792-.213.792-.817 0-.907-.008-1.815-.008-2.73 0-.613.04-.645.647-.654h1.423c.29 0 .428.123.428.434v5.883c0 .344-.186.409-.477.433-1.803.147-3.597.008-5.279.074z"/><path fill="#000" d="M13.047 19.222h4.54q.572-.002 1.13-.114c1.242-.245 1.96-1.21 1.911-2.517-.048-1.103-.943-2.026-2.145-2.182a11 11 0 00-1.46-.098c-1.274.008-2.557.008-3.831 0-.823-.008-1.258-.45-1.267-1.217-.008-.793.436-1.308 1.243-1.316 1.847-.024 3.694-.073 5.533.017 2.307.114 4.34 2.271 4.444 4.592.129 2.672-1.492 4.854-3.936 5.303a7 7 0 01-.984.09c-2.267.073-4.541.057-6.808 0-1.032-.025-1.274.212-1.234 1.25.033.81 0 1.626 0 2.435 0 .384-.113.556-.508.54a20 20 0 00-1.565 0c-.29 0-.443-.107-.443-.417v-5.933c0-.4.266-.408.548-.408h4.824v-.008z"/></svg>
